svg/aws-ec2-r5gd.svg

<?xml version="1.0" encoding="UTF-8"?>
<svg xmlns="http://www.w3.org/2000/svg" xmlns:xlink="http://www.w3.org/1999/xlink" width="32" height="32" viewBox="0 0 32 32">
<path fill-rule="evenodd" fill="rgb(83.137255%, 35.686275%, 2.745098%)" fill-opacity="1" d="M 6 26 L 26 26 L 26 6 L 6 6 Z M 30.667969 8.667969 L 30.667969 7.332031 L 27.332031 7.332031 L 27.332031 5.332031 C 27.332031 4.964844 27.035156 4.667969 26.667969 4.667969 L 24.667969 4.667969 L 24.667969 1.332031 L 23.332031 1.332031 L 23.332031 4.667969 L 20.667969 4.667969 L 20.667969 1.332031 L 19.332031 1.332031 L 19.332031 4.667969 L 16.667969 4.667969 L 16.667969 1.332031 L 15.332031 1.332031 L 15.332031 4.667969 L 12.667969 4.667969 L 12.667969 1.332031 L 11.332031 1.332031 L 11.332031 4.667969 L 8.667969 4.667969 L 8.667969 1.332031 L 7.332031 1.332031 L 7.332031 4.667969 L 5.332031 4.667969 C 4.964844 4.667969 4.667969 4.964844 4.667969 5.332031 L 4.667969 7.332031 L 1.332031 7.332031 L 1.332031 8.667969 L 4.667969 8.667969 L 4.667969 11.332031 L 1.332031 11.332031 L 1.332031 12.667969 L 4.667969 12.667969 L 4.667969 15.332031 L 1.332031 15.332031 L 1.332031 16.667969 L 4.667969 16.667969 L 4.667969 19.332031 L 1.332031 19.332031 L 1.332031 20.667969 L 4.667969 20.667969 L 4.667969 23.332031 L 1.332031 23.332031 L 1.332031 24.667969 L 4.667969 24.667969 L 4.667969 26.667969 C 4.667969 27.035156 4.964844 27.332031 5.332031 27.332031 L 7.332031 27.332031 L 7.332031 30.667969 L 8.667969 30.667969 L 8.667969 27.332031 L 11.332031 27.332031 L 11.332031 30.667969 L 12.667969 30.667969 L 12.667969 27.332031 L 15.332031 27.332031 L 15.332031 30.667969 L 16.667969 30.667969 L 16.667969 27.332031 L 19.332031 27.332031 L 19.332031 30.667969 L 20.667969 30.667969 L 20.667969 27.332031 L 23.332031 27.332031 L 23.332031 30.667969 L 24.667969 30.667969 L 24.667969 27.332031 L 26.667969 27.332031 C 27.035156 27.332031 27.332031 27.035156 27.332031 26.667969 L 27.332031 24.667969 L 30.667969 24.667969 L 30.667969 23.332031 L 27.332031 23.332031 L 27.332031 20.667969 L 30.667969 20.667969 L 30.667969 19.332031 L 27.332031 19.332031 L 27.332031 16.667969 L 30.667969 16.667969 L 30.667969 15.332031 L 27.332031 15.332031 L 27.332031 12.667969 L 30.667969 12.667969 L 30.667969 11.332031 L 27.332031 11.332031 L 27.332031 8.667969 Z M 21.558594 15.636719 C 21.710938 15.429688 21.953125 15.324219 22.28125 15.324219 C 22.585938 15.324219 22.859375 15.414062 23.109375 15.589844 L 23.109375 17.605469 C 22.863281 17.78125 22.570312 17.878906 22.265625 17.882812 C 21.640625 17.882812 21.328125 17.453125 21.328125 16.59375 C 21.328125 16.164062 21.40625 15.84375 21.558594 15.636719 M 21.996094 18.566406 C 22.429688 18.566406 22.8125 18.421875 23.148438 18.125 L 23.234375 18.484375 L 23.976562 18.484375 L 23.976562 13.058594 L 23.109375 13.058594 L 23.109375 15.023438 C 22.804688 14.777344 22.429688 14.644531 22.039062 14.644531 C 21.710938 14.644531 21.429688 14.726562 21.1875 14.898438 C 20.941406 15.074219 20.75 15.316406 20.636719 15.597656 C 20.503906 15.925781 20.441406 16.277344 20.449219 16.628906 C 20.449219 17.222656 20.589844 17.691406 20.871094 18.042969 C 21.152344 18.390625 21.527344 18.566406 21.996094 18.566406 M 17.402344 15.613281 C 17.542969 15.414062 17.765625 15.3125 18.066406 15.316406 C 18.351562 15.316406 18.625 15.40625 18.878906 15.582031 L 18.878906 17.460938 C 18.644531 17.640625 18.355469 17.742188 18.058594 17.746094 C 17.476562 17.746094 17.183594 17.335938 17.183594 16.511719 C 17.183594 16.109375 17.257812 15.808594 17.402344 15.613281 M 17.800781 18.414062 C 18.203125 18.414062 18.5625 18.277344 18.878906 18.003906 L 18.878906 18.316406 C 18.878906 18.699219 18.796875 18.972656 18.628906 19.140625 C 18.460938 19.3125 18.195312 19.394531 17.828125 19.394531 C 17.46875 19.394531 17.058594 19.316406 16.605469 19.167969 L 16.605469 19.785156 C 17.007812 19.984375 17.433594 20.085938 17.886719 20.085938 C 18.480469 20.082031 18.9375 19.921875 19.261719 19.601562 C 19.582031 19.277344 19.742188 18.820312 19.742188 18.230469 L 19.742188 14.753906 L 19.011719 14.753906 L 18.9375 15.089844 C 18.640625 14.800781 18.242188 14.640625 17.828125 14.644531 C 17.539062 14.636719 17.253906 14.722656 17.015625 14.886719 C 16.785156 15.046875 16.609375 15.269531 16.488281 15.554688 C 16.367188 15.84375 16.304688 16.171875 16.304688 16.542969 C 16.304688 17.109375 16.441406 17.5625 16.710938 17.902344 C 16.984375 18.242188 17.347656 18.414062 17.800781 18.414062 M 13.695312 18.597656 C 13.203125 18.597656 12.734375 18.496094 12.285156 18.300781 L 12.285156 17.613281 C 12.820312 17.792969 13.28125 17.882812 13.671875 17.882812 C 14.394531 17.882812 14.757812 17.570312 14.757812 16.945312 C 14.757812 16.644531 14.664062 16.421875 14.484375 16.28125 C 14.300781 16.144531 14.011719 16.074219 13.613281 16.074219 C 13.316406 16.074219 12.945312 16.097656 12.5 16.148438 L 12.5 15.589844 L 12.636719 13.402344 L 15.394531 13.402344 L 15.394531 14.101562 L 13.453125 14.101562 L 13.371094 15.457031 C 13.570312 15.417969 13.785156 15.398438 14.007812 15.398438 C 14.515625 15.398438 14.914062 15.535156 15.207031 15.808594 C 15.5 16.082031 15.644531 16.457031 15.644531 16.929688 C 15.644531 17.4375 15.46875 17.84375 15.117188 18.144531 C 14.765625 18.445312 14.289062 18.597656 13.695312 18.597656 M 8.898438 14.09375 L 9.808594 14.09375 C 10.367188 14.09375 10.644531 14.375 10.644531 14.9375 C 10.644531 15.5 10.359375 15.78125 9.789062 15.78125 L 8.898438 15.78125 Z M 8.898438 16.46875 L 9.792969 16.46875 L 10.980469 18.484375 L 11.875 18.484375 L 10.5625 16.316406 C 10.886719 16.1875 11.128906 16.003906 11.300781 15.765625 C 11.46875 15.523438 11.550781 15.238281 11.550781 14.90625 C 11.550781 14.445312 11.402344 14.082031 11.101562 13.8125 C 10.800781 13.539062 10.402344 13.402344 9.902344 13.402344 L 8.003906 13.402344 L 8.003906 18.484375 L 8.898438 18.484375 Z M 8.898438 16.46875 "/>
</svg>

<svg role="img" viewBox="0 0 32 32" xmlns="http://www.w3.org/2000/svg"><path d="M6 26h20V6H6ZM30.668 8.668V7.332h-3.336v-2a.664.664 0 0 0-.664-.664h-2V1.332h-1.336v3.336h-2.664V1.332h-1.336v3.336h-2.664V1.332h-1.336v3.336h-2.664V1.332h-1.336v3.336H8.668V1.332H7.332v3.336h-2a.664.664 0 0 0-.664.664v2H1.332v1.336h3.336v2.664H1.332v1.336h3.336v2.664H1.332v1.336h3.336v2.664H1.332v1.336h3.336v2.664H1.332v1.336h3.336v2c0 .367.297.664.664.664h2v3.336h1.336v-3.336h2.664v3.336h1.336v-3.336h2.664v3.336h1.336v-3.336h2.664v3.336h1.336v-3.336h2.664v3.336h1.336v-3.336h2a.664.664 0 0 0 .664-.664v-2h3.336v-1.336h-3.336v-2.664h3.336v-1.336h-3.336v-2.664h3.336v-1.336h-3.336v-2.664h3.336v-1.336h-3.336V8.668Zm-9.11 6.969q.23-.312.723-.313c.305 0 .578.09.828.266v2.015a1.47 1.47 0 0 1-.843.278q-.938 0-.938-1.29.001-.645.23-.956m.438 2.93q.65.002 1.152-.442l.086.36h.743v-5.426h-.868v1.964a1.7 1.7 0 0 0-1.07-.378q-.49-.002-.852.253a1.6 1.6 0 0 0-.55.7 2.6 2.6 0 0 0-.188 1.03c0 .595.14 1.063.422 1.415q.421.523 1.125.523m-4.594-2.954q.213-.298.664-.297.43.001.813.266v1.879a1.4 1.4 0 0 1-.82.285q-.874.001-.875-1.234.001-.605.218-.899m.399 2.801q.604 0 1.078-.41v.312q.001.574-.25.825-.252.256-.8.254-.541 0-1.224-.227v.617q.603.3 1.282.3.889-.002 1.375-.483.48-.487.48-1.372v-3.476h-.73l-.075.336a1.56 1.56 0 0 0-1.109-.445 1.36 1.36 0 0 0-.812.242q-.346.24-.528.668-.181.432-.183.988 0 .85.406 1.36.41.51 1.09.511m-4.106.184c-.492 0-.96-.102-1.41-.297v-.688q.802.27 1.387.27 1.085 0 1.086-.938-.002-.451-.274-.664-.274-.206-.87-.207-.447 0-1.114.074v-.558l.137-2.188h2.758v.7h-1.942l-.082 1.355q.301-.059.637-.059.76 0 1.199.41.439.412.438 1.122 0 .765-.528 1.215c-.351.3-.828.453-1.422.453m-4.797-4.504h.91q.838 0 .837.844 0 .843-.856.843H8.9Zm0 2.375h.895l1.187 2.015h.895l-1.312-2.168c.324-.128.566-.312.738-.55q.251-.36.25-.86 0-.687-.45-1.094-.45-.41-1.199-.41H8.004v5.082h.894Zm0 0" fill="rgb(83.137256%, 35.686275%, 2.745098%)" fill-rule="evenodd"/></svg>
